X: 4
T: The Brocca
R: reel
M: 4/4
L: 1/8
K: Ador
EA,CE DG,B,D|EA,CE ABAG|E2A,E ~F2DF|GB (3ABc BAGF|
EA,CE DG,B,D|EA,CE ABAG|1 ~E2FD FG (3GFE|DB,G,B, A,B,CD:|2 EA (3cBA BcAG|G,A,B,G, A,B,^CE||
K: Dmaj
Addc d2fd|~d2ed cdec|dFFE DdAF|DE~E2 EDCE|
Addc d2fd|~d2ed cdec|d2=Fd =cAGE|EDCE DE=FE|
Dddc d2ad|~d2ad cdec|dFFE DdAF|~G2FG EA,CE|
Addc d2fd|~d2ed cdec|d2=Fd =cAGE|EDCE DFGF||

composer: Liz Carroll
